<?xml version="1.0" encoding="UTF-8"?>
<map version="1.10" tiledversion="1.11.2" orientation="orthogonal" renderorder="right-down" width="25" height="19" tilewidth="32" tileheight="32" infinite="0" nextlayerid="2" nextobjectid="1">
 <tileset firstgid="1" source="lab.tsx"/>
 <layer id="1" name="Livello tile 1" width="25" height="19">
  <data encoding="csv">
533,50,51,52,98,98,99,100,101,113,549,550,551,552,113,113,120,121,113,113,113,125,126,127,128,
533,138,139,140,141,142,143,144,145,162,593,594,595,596,162,162,164,165,162,167,168,169,170,171,172,
533,182,183,184,185,186,187,188,189,190,191,192,193,194,195,195,208,209,195,211,212,213,214,215,216,
533,226,227,228,229,230,231,232,233,234,235,236,237,238,239,239,252,253,238,255,256,257,258,259,260,
533,270,271,272,273,274,275,276,277,278,279,280,281,282,283,239,296,297,238,299,300,301,302,303,304,
313,314,315,316,317,318,319,320,321,322,323,324,325,326,327,239,340,341,238,343,344,345,346,347,348,
357,358,359,360,361,362,363,364,365,366,367,368,369,381,382,383,384,385,386,387,388,389,390,391,392,
401,402,403,404,405,406,407,408,409,410,411,412,413,425,426,427,428,429,430,431,432,433,434,435,436,
445,446,447,448,449,450,451,452,453,454,455,456,457,469,470,471,472,473,474,475,476,477,478,479,480,
533,534,535,536,493,494,495,496,497,498,499,500,501,513,514,515,516,517,518,519,520,521,522,523,524,
577,578,579,580,537,538,539,540,541,542,543,544,545,557,547,561,560,561,562,563,564,565,566,567,568,
621,622,623,624,581,582,583,584,585,586,587,588,589,590,591,561,604,605,606,607,608,609,610,611,612,
665,666,667,668,625,626,627,628,629,630,631,632,633,634,635,649,648,649,650,651,652,653,654,655,656,
533,534,491,492,669,670,671,672,673,674,675,676,677,678,679,692,692,693,694,695,696,697,698,699,700,
533,534,535,536,713,714,715,716,717,718,719,720,721,722,723,724,737,737,738,739,740,741,742,743,744,
753,754,755,756,757,758,759,760,761,762,763,764,765,766,767,768,781,781,782,783,784,785,786,787,788,
796,796,796,796,797,798,799,800,801,802,803,804,805,806,807,808,809,810,811,812,813,814,815,816,832,
574,575,576,840,841,842,843,844,845,846,847,848,849,850,851,852,853,854,855,856,857,858,859,860,876,
618,619,620,888,889,890,891,892,893,894,895,896,897,898,899,900,901,902,903,904,905,906,907,908,909
</data>
 </layer>
</map>
